X:1
T:Die Kunst der Fuge Contrapunctus 1
T:J.S. Bach
%%score 1 2 3 4
L:1/8
M:4/4
K:F
V:1 treble nm="Piano" snm="Pno."
V:2 treble nm="Piano" snm="Pno."
V:3 bass nm="Piano" snm="Pno."
V:4 bass nm="Piano" snm="Pno."
V:1
 z8 | z8 | z8 | z8 | A4 d4 | c4 A4 | ^G4 A2 =B2 | c4- cdcB | AD d4 ^c2 | dA c3 A B2- | BE A6- | %11
 A c2 =B c4- | cD c2- cA =B2- | B2 A^G A4 | =B4 c2 d2 | GB A2- ABAG- | GEFD B4- | BG A2 d4- | %18
 d=B c2 f4- | fd e2 A2 d2- | d=B c2 F2 _B2 | A4 D2 G2- | GEFd E4- | ED A4 G2 | A4 z4 | z8 | z8 | %27
 z8 | A4 e4 | c4 A4 | ^G4 A2 =B2 | c4- cdcB | A2 z2 z2 A2- | AcBA BAG^F | G3 B E3 ^F | G3 E ^C3 A | %36
 D3 F E3 c | F3 A G3 e | A3 c B3 g | ^c4 d2 e2- | e^c d2- d3 e | fe g2- gfed | ^cA d2- d=B =c2- | %43
 c2 B2 A2 z2 | z8 | z8 | z8 | z8 | e4 a4 | f4 d4 | ^c4 d2 e2 | f4- fgfe | d3/2 z/ e2 ^c2 df | %53
 B4- BBAG | F4 B4 | A6 e2- | e^cde fd g2- | geag fed^c | dcBA G4- | GEFD A4- | A^FGB c4- | %61
 cABd _e2 d2 | ^c2 a2- ad g2- | g^c f2- fd e2- | e^c d2- d=B =c2- | c2 B2 A3 G | dfeg fe d2- | %67
 d f2 e fd e2- | edc=B c3 a | g^fgb ^c2 z2 | z4 d2 z2 | z4 d4- | d4- d=B ^c2 | d3 c B3 A | %74
 D4 z GAc- | cBc_e- ed^fa- | ag/a/ b^c d4- | d8- | d8 |] %79
V:2
 D4 A4 | F4 D4 | ^C4 D2 E2 | F4- FGFE | D2 E2 F2 G2 | A2 A,=B, CA, F2- | F=B, E2- EFED | %7
 E2 ^F2 G4- | G2 F2 E4 | D3 E F3 D | G3 G FED^C | D2 G4 C2 | F3 E F3 ^G, | E6 DC | DFED C2 z2 | %15
 z8 | z8 | z8 | z8 | z8 | z8 | z8 | D4 A4 | F4 D4 | ^C4 D2 E2 | F4- FGFE | D2 G2- GE F2 | %27
 E2 A2- A^F G2 | ^F2 d2 ^G4 | A2 z A, C2 A,2 | D2 F2 E2 D2 | C2 A4 D2 | E2 A2- AGFE | D8- | %34
 DD G2- GG C2- | CA, B,2 A,4- | A,F, G,2 C4- | CA, =B,2 E4- | E^C D2 G4- | GA B2 A4- | A4- AF G2 | %41
 A3 B A2 G2- | G2 FD A3 G | ^FD G2 GE =F2- | FD G2- GE A2- | AF B2- BG A2- | AF G4 FD | A4 d4- | %48
 d^c=Bc dA e2- | eA d2 z F B2- | BE A2 AGFE | DAd=B GE c2- | c2 B2 A4 | G3 F E4- | E2 D^C D2 G2- | %55
 G3 F E3 E | A6 GB | A4- AGFE | D6 E2 | A,2 z2 z2 _E2 | D4 z2 ^F2 | G^F G2 z2 B2- | BAfd =B2 e^c | %63
 A2 dA B3 G | A3 F E3 G | ^FD G2- GE =F2- | Fd c2- c3 c | BA ^G2 A3 E | A2 G2- G3 c | A2 G4 z2 | %70
 z4 A2 z2 | z4 =B4 | A4- A3 G | ^FG A2- AG c2- | c^FGB _E4 | D2 A,2 B,2 C2 | D2 G,2- G,BAG- | %77
 G^FEG F4- | F8 |] %79
V:3
 z8 | z8 | z8 | z8 | z8 | z8 | z8 | z8 | z8 | z8 | z8 | z8 | A,4 D4 | C4 A,4 | ^G,4 A,2 =B,2 | %15
 C4- CDCB, | A,4- A,F, G,2 | C4- CA, B,2 | E4- E^C D2 | G4- GE F2 | E3 A D3 E | ^C2 DA, =B,3 C | %22
 D2 A,6- | A,4 B,4 | z E, A,2 A,B,A,G, | A,2 =B,2 C4- | CA, B,2 A,2 D2- | D=B, C2 B,2 E2- | %28
 EA, D2- DDC=B, | CD E2- EEDC | =B,4 C2 ^G,2 | A,G,^F,E, F,2 G,2- | G,G,F,E, F,E,D,^C, | %33
 D,2 z2 z4 | z8 | z8 | z8 | z8 | z8 | E,4 A,4 | F,4 D,4 | ^C,4 D,2 E,2 | F,4- F,G,F,E, | D,6 A,F, | %44
 B,3 G, C3 A, | D2 G,2 C2 F,2 | B,2 E,2 A,4 | E,2 A,2- A,^G,^F,G, | A,3 G, F,E,D,^C, | %49
 D,2 F,D, B,2 G,E, | A,3 F =B,2 ^C2 | D2 =B,G, C2 A,F, | B,D G2- GE F2- | FFED ^C4 | %54
 DCB,A, G,A,B,C | DA, D2- D=B, ^C2- | CEA,^C D2 B,G, | E,4 F,2 G,2 | A,4 =B,2 ^C2 | D2 z2 z2 ^F,2 | %60
 G,A, B,2 z2 C2 | D4 z G,2 F, | E,2 z2 z4 | z2 F,D, G,3 ^C, | F,3 D, A,4 | D,2 D4 A,F, | %66
 B,4- B,^G, A,2 | D4- D=B, C2 | F4- FD _E2 | D4 E2 z2 | z4 F2 z2 | z4 F4- | F2 ED E2 z2 | A,4 D4 | %74
 B,4 G,4 | ^F,4 G,2 A,2 | B,4- B,DCB, | A,8- | A,8 |] %79
V:4
 z8 | z8 | z8 | z8 | z8 | z8 | z8 | z8 | D,4 A,4 | F,4 D,4 | ^C,4 D,2 E,2 | F,4- F,G,F,E, | %12
 D,4 z4 | z2 A,,=B,, C,A,, F,2- | F,=B,, E,2- E,F,E,D, | E,G,^F,A, G,4 | D,6 E,D, | %17
 E,2 F,E, ^F,2 G,F, | ^G,2 A,G, A,2 B,A, | =B,2 CB, ^C2 D^G, | A,4 A,F, G,2- | G,E, F,2- F,D, E,2 | %22
 D,4- D,=B,, ^C,2 | D,3 C, B,,4 | A,,3 G,, F,,G,,F,,E,, | D,,F,,E,,D,, A,,3 F,, | B,,3 G,, D,3 F, | %27
 A,3 A,, E,,2 z2 | z4 E,4 | A,4 F,4- | F,F,E,D, C,D,C,=B,, | A,,4 D,4 | ^C,4 A,,4 | %33
 ^F,,4 G,,2 A,,2 | B,,4- B,,C,B,,A,, | G,,4- G,,E,, F,,2 | B,,4- B,,G,, A,,2 | D,4- D,=B,, C,2 | %38
 F,4- F,D, E,2 | A,,3 G, F,E,D,^C, | D,3 F,, B,,4 | A,,8- | A,,3 B,, A,,G,, A,,2 | B,,3 G,, D,4- | %44
 D,2 E,4 F,2- | F,3 D, E,3 ^C, | D,3 =B,, ^C,A,, D,2- | D,C,=B,,A,, B,,4 | A,,2 z2 z4 | z8 | z8 | %51
 z8 | z8 | z8 | z8 | D,4 A,4 | F,4 D,4 | ^C,4 D,2 E,2 | F,4- F,G,F,E, | D,4- D,_E,D,C, | %60
 B,,4 B,,C,B,,A,, | G,,6 G,, z | A,,8- | A,,8- | A,,6 A,,2 | B,,3 G,, D,4- | D,B,, C,2 F,4- | %67
 F,D, E,2 A,4- | A,F, G,2 C4- | CA, B,4 z2 | z4 A,2 z2 | z4 ^G,4 | A,6 A,,2 | D,8- | D,8- | D,8- | %76
 D,8- | D,8- | D,8 |] %79

